flaticon/gastronomy/pizza-5.svg

<svg xmlns="http://www.w3.org/2000/svg" width="32" height="32" viewBox="0 0 24 24">
    <path d="M 23.632812 1.300781 L 22.882812 0.550781 C 22.40625 0.0742188 21.574219 0.0742188 21.097656 0.550781 L 13.691406 7.957031 L 14.578125 8.839844 L 12.214844 11.203125 C 10.910156 9.976562 9.296875 9.191406 7.519531 8.9375 L 7.394531 9.824219 C 9.066406 10.0625 10.585938 10.824219 11.785156 12.023438 C 12.984375 13.222656 13.742188 14.738281 13.980469 16.414062 L 14.867188 16.285156 C 14.628906 14.625 13.929688 13.101562 12.835938 11.84375 L 15.210938 9.472656 L 16.226562 10.488281 L 23.632812 3.085938 C 23.867188 2.847656 24 2.53125 24 2.191406 C 24 1.855469 23.871094 1.539062 23.632812 1.300781 Z M 16.980469 5.9375 L 18.878906 6.570312 L 18.636719 6.8125 L 16.738281 6.175781 Z M 14.960938 7.957031 L 16.03125 6.886719 L 17.929688 7.519531 L 16.226562 9.222656 Z M 23 2.449219 L 19.585938 5.859375 L 17.6875 5.226562 L 21.730469 1.183594 C 21.867188 1.046875 22.109375 1.046875 22.25 1.183594 L 22.996094 1.933594 C 23.066406 2 23.105469 2.09375 23.105469 2.191406 C 23.105469 2.289062 23.066406 2.382812 23 2.449219 Z M 23 2.449219"/>
    <path d="M 6.71875 10.371094 C 4.921875 10.371094 3.238281 11.070312 1.96875 12.339844 C 0.699219 13.609375 0 15.292969 0 17.089844 C 0 18.882812 0.699219 20.570312 1.96875 21.839844 C 3.238281 23.105469 4.921875 23.804688 6.71875 23.804688 C 8.511719 23.804688 10.199219 23.105469 11.46875 21.839844 C 12.734375 20.570312 13.433594 18.882812 13.433594 17.089844 C 13.433594 15.292969 12.734375 13.609375 11.464844 12.339844 C 10.199219 11.070312 8.511719 10.371094 6.71875 10.371094 Z M 10.832031 21.203125 C 9.734375 22.304688 8.273438 22.910156 6.71875 22.910156 C 5.164062 22.910156 3.699219 22.304688 2.601562 21.203125 C 1.5 20.105469 0.894531 18.644531 0.894531 17.089844 C 0.894531 15.535156 1.5 14.070312 2.601562 12.972656 C 3.699219 11.871094 5.164062 11.265625 6.71875 11.265625 C 8.273438 11.265625 9.734375 11.871094 10.832031 12.972656 C 11.933594 14.070312 12.539062 15.535156 12.539062 17.089844 C 12.539062 18.644531 11.933594 20.105469 10.832031 21.203125 Z M 10.832031 21.203125"/>
    <path d="M 6.71875 14.847656 C 6.117188 14.847656 5.558594 15.082031 5.132812 15.503906 C 4.710938 15.929688 4.476562 16.488281 4.476562 17.089844 C 4.476562 17.6875 4.710938 18.25 5.132812 18.671875 C 5.554688 19.09375 6.117188 19.328125 6.71875 19.328125 C 7.316406 19.328125 7.878906 19.09375 8.300781 18.671875 C 8.722656 18.25 8.957031 17.6875 8.957031 17.089844 C 8.957031 16.488281 8.722656 15.929688 8.300781 15.503906 C 7.878906 15.082031 7.316406 14.847656 6.71875 14.847656 Z M 7.667969 18.039062 C 7.160156 18.546875 6.273438 18.546875 5.765625 18.039062 C 5.515625 17.785156 5.375 17.445312 5.375 17.089844 C 5.375 16.730469 5.511719 16.390625 5.765625 16.140625 C 6.019531 15.886719 6.359375 15.746094 6.71875 15.746094 C 7.074219 15.746094 7.414062 15.886719 7.667969 16.140625 C 7.921875 16.390625 8.0625 16.730469 8.0625 17.089844 C 8.0625 17.449219 7.921875 17.785156 7.667969 18.039062 Z M 7.667969 18.039062"/>
</svg>

<svg xmlns="http://www.w3.org/2000/svg" width="32" height="32" viewBox="0 0 24 24">
    <path d="M23.633 1.3l-.75-.75c-.477-.476-1.309-.476-1.785 0L13.69 7.958l.887.883-2.363 2.363A8.58 8.58 0 0 0 7.52 8.938l-.125.886c1.671.239 3.19 1 4.39 2.2a7.69 7.69 0 0 1 2.195 4.39l.887-.129a8.588 8.588 0 0 0-2.031-4.441l2.375-2.371 1.016 1.015 7.406-7.402a1.268 1.268 0 0 0 0-1.785zM16.98 5.939l1.899.632-.242.242-1.899-.636zm-2.02 2.019l1.071-1.07 1.899.633-1.703 1.703zM23 2.449l-3.414 3.41-1.898-.632 4.042-4.043a.38.38 0 0 1 .52 0l.746.75c.07.066.11.16.11.257 0 .098-.04.192-.106.258zm0 0"/>
    <path d="M6.719 10.371c-1.797 0-3.48.7-4.75 1.969A6.668 6.668 0 0 0 0 17.09c0 1.793.7 3.48 1.969 4.75a6.681 6.681 0 0 0 4.75 1.965c1.793 0 3.48-.7 4.75-1.965a6.688 6.688 0 0 0 1.965-4.75c0-1.797-.7-3.48-1.97-4.75A6.66 6.66 0 0 0 6.72 10.37zm4.113 10.832a5.767 5.767 0 0 1-4.113 1.707 5.776 5.776 0 0 1-4.117-1.707A5.767 5.767 0 0 1 .895 17.09c0-1.555.605-3.02 1.707-4.117a5.776 5.776 0 0 1 4.117-1.707c1.554 0 3.015.605 4.113 1.707a5.776 5.776 0 0 1 1.707 4.117 5.767 5.767 0 0 1-1.707 4.113zm0 0"/>
    <path d="M6.719 14.848c-.602 0-1.16.234-1.586.656a2.234 2.234 0 0 0-.656 1.586c0 .598.234 1.16.656 1.582.422.422.984.656 1.586.656.597 0 1.16-.234 1.582-.656.422-.422.656-.985.656-1.582 0-.602-.234-1.16-.656-1.586a2.225 2.225 0 0 0-1.582-.656zm.949 3.191c-.508.508-1.395.508-1.902 0a1.352 1.352 0 0 1 0-1.898 1.342 1.342 0 0 1 1.902 0c.254.25.394.59.394.949 0 .36-.14.695-.394.95zm0 0"/>
</svg>
